X: 17721
T: Home Ruler, The
R: hornpipe
M: 4/4
K: Dmajor
|:(3ABc|d2 d2 d2 d2|adbd adfd|efed BAde|fded BdAB|
d2 d2 d2 d2|adbd adfd|efed BABd|AFEF D2:|
|:A,B,|D2 FA DAFA|defd B2 dB|A2 AB AFDE|FDED B,2 A,B,|
D2 FA DAFA|defd B2 dB|A2 AB AFDE|F2 D2 D2:|

